X:1
T: The Sow's Tail
C:
R:Strathspey
Q: 128
K:D
M:4/4
L:1/16
|:F2|A3B A2F2 E3F G2E2|A3B A2F2 A3B d2e2|f4 a2A2 E3F G2E2|A3B A2G2 F4 D2F2|
A3B A2F2 E3F G2E2|A3B A2F2 A3B d2e2|f4 a2A2 E3F G2E2|A3B A2G2 F4 D2f2|
a3b a2f2 e3f g2e2|a3b a2f2 d3e f2ed|g2bg f2af e3f g2fe|a3b a2g2 f4 d2f2|
a3b a2f2 e3f g2e2|a3b a2f2 d3e f2ed|g2bg f2af e3f g2fe|a3b a2g2 f4 d2:|
